icon-themes/breeze_svg/cmd/sc_formatline.svg

<svg viewBox="0 0 16 16" xmlns="http://www.w3.org/2000/svg">/&gt;<path d="m9.15625 2-7.15625 7.125v2.875c1.07486.0189 2.84375 0 2.84375 0l7.15625-7.15625zm-.71875 2.15625 1.40625 1.40625-2.84375 2.875-1.4375-1.4375zm-3.59375 3.5625 1.4375 1.40625-.71875.71875-1.40625-1.40625zm-2.84375 5.28125v1h12v-1z" fill="#4d4d4d"/></svg>

<svg xmlns="http://www.w3.org/2000/svg" viewBox="0 0 16 16">
     />
 <path 
     style="fill:#4d4d4d" 
     d="M 9.15625 2 L 2 9.125 L 2 12 C 3.07486 12.0189 4.84375 12 4.84375 12 L 12 4.84375 L 9.15625 2 z M 8.4375 4.15625 L 9.84375 5.5625 L 7 8.4375 L 5.5625 7 L 8.4375 4.15625 z M 4.84375 7.71875 L 6.28125 9.125 L 5.5625 9.84375 L 4.15625 8.4375 L 4.84375 7.71875 z M 2 13 L 2 14 L 14 14 L 14 13 L 2 13 z "
     />
 </svg>
